X: 159
T: No_240_Song_of_Friendship_(a).krn
N: Derived from No_240_Song_of_Friendship_(a).krn
%%abc-version 2.0
%%abcx-abcm2ps-target-version 5.9.1 (29 Sep 2008)
%%abc-creator hum2abc beta
%%abcx-conversion-date 2019/03/15 08:38:45
%%humdrum-veritas 3605000674
%%humdrum-veritas-data 3131693775
%%linebreak <none>
%%barnumbers 0
L: 1/8
M: 2/4
K: C clef=bass
[K:clef=bass][M:2/4]z3/ G,/ G,3/F,/ ||  
[M:3/4]G,4(3G,E,C, ||  
[M:2/4]C,C, D,3/C,/ | 
C,7/A,,/ | 
C,2z2 | 
G,2G,E, ||  
[M:7/8]D,C,A,, z C,D,/D,/C, ||  
[M:2/4]C,7/A,,/ | 
C,2z2 |]  



